X: 4
T: No_103_Moccasin_Game_Song_(a).krn
%%abc-version 2.0
%%abcx-abcm2ps-target-version 5.9.1 (29 Sep 2008)
%%abc-creator hum2abc beta
%%abcx-conversion-date 2020/08/10 18:54:57
%%gracespace 0 6 6
%%humdrum-veritas 1728213901
%%humdrum-veritas-data 1780685733
%%linebreak <none>
%%barnumbers 0
L: 1/8
M: 5/4
%%staves {1 2}
V: 1 clef=bass
V: 2 clef=bass
K: E
[V:1] [K:clef=bass][M:5/4]C>CC<CC<C B,G,C2 | 
[V:2] [K:clef=bass][M:5/4](3!accent!G,, z G,, (3!accent!G,, z G,, (3!accent!G,, z G,, (3!accent!G,, z G,, (3!accent!G,, z G,, | 
[V:1] C>CC<CC<C CG,G,2 | 
[V:2] z8z2 | 
[V:1] C>G,G,>G,G,G, G,D,G,2 | 
[V:2] z8z2 | 
[V:1] C>G,G,2G,<G, CG,F,2 | 
[V:2] z8z2 | 
[V:1] E,>E,E,2E,<E, E,C,E,2 | 
[V:2] z8z2 | 
[V:1] F,>E,E,2E,<E, C,C,C,2 ||  
[V:2] z8z2 ||  
[V:1] [M:3/4]C,>C, C,C,C,2 | 
[V:2] [M:3/4]z6 | 
[V:1] C,6 ||  
[V:2] z6 ||  
[V:1] [M:5/4]C,>G,G,2G,<G, G,E,G,2 | 
[V:2] [M:5/4]z8z2 | 
[V:1] C>G,G,2G,<G, CG,F,2 | 
[V:2] z8z2 | 
[V:1] E,>E,E,<E,E,<E, E,C,E,2 | 
[V:2] z8z2 | 
[V:1] F,>E,E,2E,<E, C,C,C,2 ||  
[V:2] z8z2 ||  
[V:1] [M:3/4]C,>C, C,C,C,2 | 
[V:2] [M:3/4]z6 | 
[V:1] C,6 |]  
[V:2] z6 |]  


